X: 11
M:2/4
L:1/16
K:Bb
(uED)|B,BAB FBAB|dBfd b(BAB)|GBFB EBDB|cdec BAGF|
|:(ufg)|dfBd FBEB|dBFD EcDB|CFAc ecAF|Bbfd c2(fg)|
dfBd FBDB|dBFD EcDB|CFAc ecAc|B2b2B2:|


